X:1
T: Fishing for Moose
R: reel
C: Rick Gagne
N: 1987 on whistle
M: 4/4
Q: 1/8=360
K: Amix
GE | "A"A2GE A2AB | "D"d2de dBAB | "G"G2ED G2Bd | "Em"e2eg edBG |
"A"A2GE A2Bd | "G"g2ga gedB | "G"GBdB "Em"eBge |1 "G"dBGB "A"A2 :|\
[2 "G"dBGB "A"a2 ||
ag | "A"aged cA~A2 | "G"BGFG EGDG | "A"EAAG EAA=c | "G"BGGB "Em"d2ed |
"A"c/B/AeA fAeA | "G"dBAB "Em"AGED | "G"GBdB "Em"eBge |1 "G"dBGB "D"A2 :|\
[2 "G"dBGB "D"A2 ||
